stylesheets/images/uikit/icons/instagram.svg

<svg width="20" height="20" viewBox="0 0 20 20" xmlns="http://www.w3.org/2000/svg">
    <path d="M13.547,1 L6.463,1 C3.452,1 1,3.44 1,6.44 L1,13.561 C1,16.561 3.452,19 6.463,19 L13.536,19 C16.559,19 19,16.561 19,13.561 L19,6.44 C19.01,3.44 16.559,1 13.547,1 L13.547,1 L13.547,1 Z M17.479,13.98 C17.479,15.879 15.927,17.429 14.016,17.429 L6.133,17.429 C4.222,17.429 2.671,15.89 2.671,13.98 L2.671,6.19 C2.671,4.29 4.222,2.74 6.133,2.74 L14.017,2.74 C15.928,2.74 17.48,4.28 17.48,6.19 L17.48,13.98 L17.479,13.98 L17.479,13.98 Z"></path>
    <circle cx="14.87" cy="5.26" r="1.09"></circle>
    <path d="M10.03,5.45 C7.48,5.45 5.4,7.51 5.4,10.05 C5.4,12.6 7.47,14.66 10.03,14.66 C12.59,14.66 14.66,12.599 14.66,10.05 C14.65,7.51 12.58,5.45 10.03,5.45 L10.03,5.45 L10.03,5.45 Z M10.08,13 C8.42,13 7.08,11.66 7.08,10.01 C7.08,8.36 8.42,7.02 10.08,7.02 C11.74,7.02 13.08,8.36 13.08,10.01 C13.08,11.66 11.74,13 10.08,13 L10.08,13 L10.08,13 Z"></path>
</svg>

<svg width="20" height="20" viewBox="0 0 20 20" xmlns="http://www.w3.org/2000/svg">
	<path d="M13.55,1H6.46C3.45,1,1,3.44,1,6.44v7.12c0,3,2.45,5.44,5.46,5.44h7.08c3.02,0,5.46-2.44,5.46-5.44V6.44 C19.01,3.44,16.56,1,13.55,1z M17.5,14c0,1.93-1.57,3.5-3.5,3.5H6c-1.93,0-3.5-1.57-3.5-3.5V6c0-1.93,1.57-3.5,3.5-3.5h8 c1.93,0,3.5,1.57,3.5,3.5V14z"></path>
	<circle cx="14.87" cy="5.26" r="1.09"></circle>
	<path d="M10.03,5.45c-2.55,0-4.63,2.06-4.63,4.6c0,2.55,2.07,4.61,4.63,4.61c2.56,0,4.63-2.061,4.63-4.61 C14.65,7.51,12.58,5.45,10.03,5.45L10.03,5.45L10.03,5.45z M10.08,13c-1.66,0-3-1.34-3-2.99c0-1.65,1.34-2.99,3-2.99s3,1.34,3,2.99 C13.08,11.66,11.74,13,10.08,13L10.08,13L10.08,13z"></path>
</svg>
